src/assets/menu-extender-collapsed.svg

<svg width="16" height="16" viewBox="0 0 16 16" fill="none" xmlns="http://www.w3.org/2000/svg">
  <g clip-path="url(#clip0_14_369)">
    <path fill-rule="evenodd" clip-rule="evenodd" d="M1.75 2C1.33579 2 1 2.33579 1 2.75C1 3.16421 1.33579 3.5 1.75 3.5H14.25C14.6642 3.5 15 3.16421 15 2.75C15 2.33579 14.6642 2 14.25 2H1.75ZM11.7197 10.2197C11.4268 10.5126 11.4268 10.9874 11.7197 11.2803L12.4393 12H10C9.58579 12 9.25 12.3358 9.25 12.75C9.25 13.1642 9.58579 13.5 10 13.5H12.4393L11.7197 14.2197C11.4268 14.5126 11.4268 14.9874 11.7197 15.2803C12.0126 15.5732 12.4874 15.5732 12.7803 15.2803L14.7803 13.2803C14.8522 13.2084 14.9065 13.1255 14.9431 13.0371C14.9798 12.9487 15 12.8517 15 12.75C15 12.6483 14.9798 12.5513 14.9431 12.4629C14.9065 12.3745 14.8522 12.2916 14.7803 12.2197L12.7803 10.2197C12.4874 9.92678 12.0126 9.92678 11.7197 10.2197ZM1 12.75C1 12.3358 1.33579 12 1.75 12H6.5C6.91421 12 7.25 12.3358 7.25 12.75C7.25 13.1642 6.91421 13.5 6.5 13.5H1.75C1.33579 13.5 1 13.1642 1 12.75ZM1.75 7C1.33579 7 1 7.33579 1 7.75C1 8.16421 1.33579 8.5 1.75 8.5H14.25C14.6642 8.5 15 8.16421 15 7.75C15 7.33579 14.6642 7 14.25 7H1.75Z" fill="#20293A"/>
  </g>
  <defs>
    <clipPath id="clip0_14_369">
      <rect width="16" height="16" fill="white"/>
    </clipPath>
  </defs>
</svg>

<svg width="16" height="16" viewBox="0 0 16 16" fill="none" xmlns="http://www.w3.org/2000/svg">
  <g clip-path="url(#a)">
    <path fill-rule="evenodd" clip-rule="evenodd" d="M1.75 2a.75.75 0 0 0 0 1.5h12.5a.75.75 0 0 0 0-1.5zm9.97 8.22a.75.75 0 0 0 0 1.06l.72.72H10a.75.75 0 0 0 0 1.5h2.44l-.72.72a.75.75 0 1 0 1.06 1.06l2-2a.75.75 0 0 0 0-1.06l-2-2a.75.75 0 0 0-1.06 0M1 12.75a.75.75 0 0 1 .75-.75H6.5a.75.75 0 0 1 0 1.5H1.75a.75.75 0 0 1-.75-.75M1.75 7a.75.75 0 0 0 0 1.5h12.5a.75.75 0 0 0 0-1.5z" fill="#20293A"/>
  </g>
  <defs>
    <clipPath id="a">
      <path fill="#fff" d="M0 0h16v16H0z"/>
    </clipPath>
  </defs>
</svg>
